X: 0
T: Tempus Adest Floridum
Z: From "Piae Cantiones," 1582
Z: Copyright © 2006 by Douglas D. Anderson
Z: Released To The Public Domain
L: 1/4
M: 4/4
V: P1 name="Church Organ"
%%MIDI program 1 19
V: P2 name="French Horn"
%%MIDI program 2 60
V: P3 name="Trombone"
%%MIDI program 3 57
V: P4 name="Tuba"
%%MIDI program 4 58
K: A
[V: P1]  A A A B | A A E2 | F E F G | A2 A2 | A A A B | A A E2 | F E F G | A2 A2 | e d c B | c B A2 | F E F G | A2 A2 | E E F G | A A B2 | e d c B | (A2 d2) | A4|]
w: Gen- tle Ma- ry laid her Child Low- ly in a man- ger; There He lay, the un- de filed, To the world a Stran- ger: Such a Babe in such a place, Can He be the Sav- ior? Ask the saved of all the race Who have found His fa-_ vor.
[V: P2]  E E F E | E E (B, C) | D E D D | (E D) C2 | E E F E | E D (B, C) | D E E D | (C D) E2 | E F G G | G ^E C2 | D E D D | C2 (D C) | B, E E D | C ^D E2 | E F E D | (C2 F2) | E4|]
[V: P3]  C C C B, | C A, G,2 | A, A, A, B, | (C B,) A,2 | C C D D | C F, G,2 | A, A, C B, | (A, B,) C2 | A, A, E D | C G, A,2 | A, A, A, B, | (A, G,) F,2 | G, A, C B, | A, A, G,2 | A, A, G, G, | A,4 | [A,4C4]|]
[V: P4]  A, G, F, G, | A, C, E,2 | D, C, D, B,, | A,,2 A,,2 | A, G, F, G, | A, D, E,2 | D, C, D, E, | A,,2 A,2 | C, D, E, E, | ^E, C, (F, =E,) | D, C, B,, E, | (F, E,) D,2 | D, C, D, E, | F, F, E,2 | C, D, E, E, | (F, E, D, F,) | A,,4|]

